src/svg/storage.svg

<?xml version="1.0" encoding="UTF-8"?><svg id="_イヤー_2" xmlns="http://www.w3.org/2000/svg" viewBox="0 0 591.02334 591.02334"><defs><style>.cls-1{fill:#050101;}</style></defs><path class="cls-1" d="M537.52428,145.2644c0-20.5477-13.86727-35.51582-25.4998-44.45475-13.02425-10.00733-31.07417-18.80198-53.64919-26.13888-43.80525-14.23692-101.6452-22.07731-162.86362-22.07731s-119.0578,7.84039-162.86362,22.07731c-22.57443,7.33689-40.62494,16.13155-53.64919,26.13888-11.63254,8.93892-25.4998,23.90704-25.4998,44.45475,0,7.71002,1.95264,14.63439,5.00685,20.74962l-.00261-.00492c-3.2486,4.44658-5.00424,9.69475-5.00424,15.1825v65.21799c0,7.34443,1.77759,13.97214,4.58563,19.87068-2.97824,4.3165-4.58563,9.34102-4.58563,14.58601v65.21799c0,7.34443,1.77759,13.97214,4.58563,19.87068-2.97824,4.3165-4.58563,9.34102-4.58563,14.58601v65.21799c0,20.5477,13.86727,35.5164,25.4998,44.45475,13.02425,10.00791,31.07475,18.80198,53.64919,26.13888,43.80582,14.23692,101.6452,22.07731,162.86362,22.07731s119.05838-7.84039,162.86362-22.07731c22.57501-7.33689,40.62494-16.13097,53.64919-26.13888,11.63254-8.93834,25.4998-23.90704,25.4998-44.45475v-65.21799c0-5.06856-1.75007-9.88768-4.95644-13.81136,3.02459-6.08974,4.95644-12.97876,4.95644-20.64533v-65.21799c0-5.06856-1.75007-9.88768-4.95644-13.81136,3.02459-6.08974,4.95644-12.97876,4.95644-20.64533v-65.21799c0-5.3119-1.91824-10.35265-5.42489-14.37279,3.28996-6.31136,5.42489-13.50254,5.42489-21.55441Zm-41.53112,300.49454c0,3.81301-9.26918,17.71098-50.4544,31.09619-39.77033,12.92517-93.05102,20.04363-150.0271,20.04363s-110.25619-7.11846-150.0271-20.04363c-41.18522-13.38521-50.4544-27.28319-50.4544-31.09619v-44.88408c10.6049,5.82032,23.18121,11.11108,37.61787,15.80303,43.80582,14.23692,101.6452,22.07731,162.86362,22.07731s119.05838-7.84039,162.86362-22.07731c14.43696-4.69195,27.01319-9.98271,37.61787-15.80303v44.88408Zm0-99.67468c0,3.81301-9.26918,17.71098-50.4544,31.09619-39.77033,12.92517-93.05102,20.04363-150.0271,20.04363s-110.25619-7.11846-150.0271-20.04363c-41.18522-13.38521-50.4544-27.28319-50.4544-31.09619v-44.88408c10.6049,5.82032,23.18121,11.11108,37.61787,15.80303,43.80582,14.23692,101.6452,22.07731,162.86362,22.07731s119.05838-7.84039,162.86362-22.07731c14.43696-4.69195,27.01319-9.98271,37.61787-15.80303v44.88408Zm0-99.67468c0,3.81301-9.26918,17.71098-50.4544,31.09619-39.77033,12.92517-93.05102,20.04363-150.0271,20.04363s-110.25619-7.11846-150.0271-20.04363c-41.18522-13.38521-50.4544-27.28319-50.4544-31.09619v-46.35459l-.0113-.00637c10.60729,5.82293,23.18736,11.11572,37.62917,15.8094,43.80582,14.23692,101.6452,22.07731,162.86362,22.07731s119.05838-7.84039,162.86362-22.07731c14.43696-4.69195,27.01319-9.98271,37.61787-15.80303v46.35459Zm-50.4544-70.04899c-39.77033,12.92517-93.05102,20.04363-150.0271,20.04363s-110.25619-7.11846-150.0271-20.04363c-41.18522-13.38521-50.4544-27.28319-50.4544-31.09619s9.26918-17.7104,50.4544-31.09619c39.77091-12.92517,93.0516-20.04363,150.0271-20.04363s110.25677,7.11846,150.0271,20.04363c41.18522,13.38579,50.4544,27.28319,50.4544,31.09619s-9.26918,17.71098-50.4544,31.09619Z"/></svg>

<svg id="レイヤー_2" data-name="レイヤー 2" xmlns="http://www.w3.org/2000/svg" viewBox="0 0 591.02 591.02"><defs><style>.cls-1{fill:#050101;}</style></defs><path class="cls-1" d="M537.52,145.26c0-20.54-13.86-35.51-25.5-44.45C499,90.8,481,82,458.38,74.67,414.57,60.43,356.73,52.59,295.51,52.59S176.45,60.43,132.65,74.67C110.07,82,92,90.8,79,100.81c-11.63,8.94-25.5,23.91-25.5,44.45a45.93,45.93,0,0,0,5,20.75h0a25.59,25.59,0,0,0-5,15.18v65.22a46,46,0,0,0,4.58,19.87,25.63,25.63,0,0,0-4.58,14.59v65.21A45.88,45.88,0,0,0,58.08,366a25.65,25.65,0,0,0-4.58,14.59v65.22c0,20.55,13.87,35.52,25.5,44.45,13,10,31.07,18.81,53.65,26.14,43.8,14.24,101.64,22.08,162.86,22.08s119.06-7.84,162.87-22.08C481,509,499,500.22,512,490.21c11.64-8.93,25.5-23.9,25.5-44.45V380.54a21.74,21.74,0,0,0-4.95-13.81,46.06,46.06,0,0,0,4.95-20.65V280.87a21.78,21.78,0,0,0-4.95-13.82,46,46,0,0,0,4.95-20.64V181.19a21.73,21.73,0,0,0-5.42-14.37A46.18,46.18,0,0,0,537.52,145.26ZM496,445.76c0,3.81-9.27,17.71-50.45,31.1-39.77,12.92-93.05,20-150,20s-110.25-7.12-150-20C104.3,463.47,95,449.57,95,445.76V400.87a218.75,218.75,0,0,0,37.62,15.81c43.8,14.23,101.64,22.08,162.86,22.08s119.06-7.85,162.87-22.08A218.63,218.63,0,0,0,496,400.87Zm0-99.68c0,3.82-9.27,17.72-50.45,31.1-39.77,12.93-93.05,20-150,20s-110.25-7.11-150-20C104.3,363.8,95,349.9,95,346.08V301.2A219.56,219.56,0,0,0,132.65,317c43.8,14.24,101.64,22.08,162.86,22.08S414.57,331.24,458.38,317A219.44,219.44,0,0,0,496,301.2Zm0-99.67c0,3.81-9.27,17.71-50.45,31.1-39.77,12.92-93.05,20-150,20s-110.25-7.12-150-20C104.3,264.12,95,250.22,95,246.41V200.05h0a220.47,220.47,0,0,0,37.63,15.81c43.8,14.23,101.64,22.08,162.86,22.08s119.06-7.85,162.87-22.08A218.63,218.63,0,0,0,496,200.05Zm-50.45-70c-39.77,12.93-93.05,20-150,20s-110.25-7.11-150-20C104.3,163,95,149.08,95,145.26s9.27-17.71,50.45-31.09c39.78-12.93,93.06-20,150-20s110.26,7.12,150,20C486.72,127.55,496,141.45,496,145.26S486.72,163,445.54,176.36Z"/></svg>
